packages/icon/src/svg/filter.icon.svg

<svg width="24" height="24" viewBox="0 0 24 24" fill="none" xmlns="http://www.w3.org/2000/svg">
<path fill-rule="evenodd" clip-rule="evenodd" d="M3.5 6C3.22386 6 3 6.22386 3 6.5V7.5C3 7.77614 3.22386 8 3.5 8H20.5C20.7761 8 21 7.77614 21 7.5V6.5C21 6.22386 20.7761 6 20.5 6H3.5ZM6.5 11C6.22386 11 6 11.2239 6 11.5V12.5C6 12.7761 6.22386 13 6.5 13H17.5C17.7761 13 18 12.7761 18 12.5V11.5C18 11.2239 17.7761 11 17.5 11H6.5ZM9 16.5C9 16.2239 9.22386 16 9.5 16H14.5C14.7761 16 15 16.2239 15 16.5V17.5C15 17.7761 14.7761 18 14.5 18H9.5C9.22386 18 9 17.7761 9 17.5V16.5Z" fill="white"/>
</svg>

<svg aria-label="filter icon" viewBox="0 0 24 24"><path fill-rule="evenodd" clip-rule="evenodd" d="M3.5 6a.5.5 0 00-.5.5v1a.5.5 0 00.5.5h17a.5.5 0 00.5-.5v-1a.5.5 0 00-.5-.5h-17zm3 5a.5.5 0 00-.5.5v1a.5.5 0 00.5.5h11a.5.5 0 00.5-.5v-1a.5.5 0 00-.5-.5h-11zM9 16.5a.5.5 0 01.5-.5h5a.5.5 0 01.5.5v1a.5.5 0 01-.5.5h-5a.5.5 0 01-.5-.5v-1z"/></svg>
